src/images/welcome-icon.svg

<svg width="23" height="25" viewBox="0 0 23 25" fill="none" xmlns="http://www.w3.org/2000/svg">
<path d="M19.9577 15.4077L22.4793 15.4077L22.4793 13.3141L15.1904 13.3141C15.0578 15.4864 13.2336 17.2102 11.0037 17.2102C8.77378 17.2102 6.94956 15.4864 6.81698 13.3141L1.05193e-05 13.3141L1.03363e-05 15.4077L2.08143 15.4077C2.19279 15.838 2.33862 16.2604 2.51362 16.6749C2.71248 17.1419 2.94846 17.588 3.22157 18.0104L1.39999 19.8128L4.2689 22.6516L6.09312 20.8465C6.51471 21.1115 6.96016 21.3424 7.42417 21.5365C7.94651 21.7543 8.48477 21.9248 9.03362 22.0429L9.03362 24.5537L13.0957 24.5537L13.0957 22.0219C13.6127 21.9038 14.1192 21.7412 14.6124 21.5365C15.1108 21.3293 15.5854 21.08 16.0335 20.7914L17.826 22.565L20.6975 19.7236L18.8759 17.9212C19.1252 17.525 19.34 17.1078 19.5256 16.6749C19.7006 16.2604 19.8464 15.838 19.9577 15.4077Z" fill="#FFCC29"/>
<path d="M18.8742 4.205V8.43263C18.8742 8.71952 18.6372 8.95229 18.345 8.95229H17.9702C17.678 8.95229 17.441 8.71952 17.441 8.43263V3.10615C16.3551 2.39703 15.1368 1.86655 13.8304 1.56342V8.89816C13.8304 9.18505 13.5934 9.41781 13.3012 9.41781H9.167C8.87485 9.41781 8.63782 9.18505 8.63782 8.89816V1.56342C7.34793 1.86655 6.12971 2.40245 5.04378 3.10615V8.43263C5.04378 8.71952 4.80675 8.95229 4.5146 8.95229H4.13976C3.8476 8.95229 3.61057 8.71952 3.61057 8.43263V4.205C1.39462 6.21868 0 9.09303 0 12.2922H22.4793C22.4848 9.09303 21.0957 6.21868 18.8742 4.205Z" fill="#FFCC29"/>
<path d="M12.7723 8.02294C12.7723 8.26487 12.595 8.46048 12.372 8.46048H10.1073C9.88998 8.46048 9.70697 8.26487 9.70697 8.02294V0.723734C9.70697 0.4818 9.88426 0.286194 10.1073 0.286194H12.372C12.5893 0.286194 12.7723 0.4818 12.7723 0.723734V8.02294Z" fill="#FFCC29"/>
</svg>

<svg xmlns="http://www.w3.org/2000/svg" width="23" height="25" fill="none"><path fill="#FFCC29" d="M19.958 15.408h2.521v-2.094H15.19c-.132 2.172-1.956 3.896-4.186 3.896s-4.054-1.724-4.187-3.896H0v2.094h2.081q.17.645.433 1.267.297.701.708 1.335L1.4 19.813l2.869 2.839 1.824-1.806a9.227 9.227 0 0 0 2.94 1.196v2.512h4.063v-2.532a9.4 9.4 0 0 0 1.516-.485 9 9 0 0 0 1.422-.746l1.792 1.774 2.872-2.841-1.822-1.803a9 9 0 0 0 1.082-2.513M18.874 4.205v4.228c0 .287-.237.52-.529.52h-.375a.525.525 0 0 1-.529-.52V3.106a11.3 11.3 0 0 0-3.61-1.543v7.335c0 .287-.238.52-.53.52H9.167a.525.525 0 0 1-.53-.52V1.563c-1.29.304-2.507.84-3.593 1.543v5.327c0 .287-.237.52-.53.52H4.14a.525.525 0 0 1-.53-.52V4.205C1.396 6.219 0 9.093 0 12.292h22.48c.005-3.199-1.384-6.073-3.606-8.087"/><path fill="#FFCC29" d="M12.772 8.023c0 .242-.177.437-.4.437h-2.265c-.217 0-.4-.195-.4-.437v-7.3c0-.241.177-.437.4-.437h2.265c.217 0 .4.196.4.438z"/></svg>
